X: 14312
T: Gallagher's Frolics
R: jig
M: 6/8
K: Edorian
B,|:~E3 GFE|BAB dBA|BdB BAB|GBG AFD|
~E3 GFE|BAB dBA|BAG FEF|1 GED E2B,:|2 GED E2B||
|:e2f gfe|g2a bge|dfa afd|afd afd|
e2f gfe|dfe dBA|BAG FEF|1 GED E2B:|2 GED E2B,||

